packages/match-logos/mono/svg/porch.svg

<svg width="137" height="36" viewBox="0 0 137 36" fill="none" xmlns="http://www.w3.org/2000/svg">
<g clip-path="url(#clip0)">
<path d="M45.0899 23.31C43.9199 23.31 42.2999 23.22 41.0399 23.13V35.64H37.1699V0.54C39.7799 0.18 42.3899 0 45.2699 0C54.3599 0 58.8599 5.22 58.8599 11.25C58.9499 18.36 53.7299 23.31 45.0899 23.31ZM45.8999 3.51C44.2799 3.51 42.2999 3.6 41.0399 3.87V19.62C42.2099 19.8 43.9199 19.89 45.2699 19.89C51.8399 19.89 54.7199 16.11 54.7199 11.52C54.8099 7.38 51.7499 3.51 45.8999 3.51ZM68.3099 36C62.0999 36 58.0499 31.23 58.0499 25.47C58.0499 19.71 62.1899 14.94 68.3099 14.94C74.5199 14.94 78.5699 19.71 78.5699 25.47C78.4799 31.23 74.4299 36 68.3099 36ZM68.3099 18.09C64.4399 18.09 61.8299 21.06 61.8299 25.56C61.8299 29.97 64.4399 33.03 68.3099 33.03C72.1799 33.03 74.7899 30.06 74.7899 25.56C74.7899 21.06 72.1799 18.09 68.3099 18.09ZM86.9399 21.78V35.64H83.16V15.39H86.7599V18.81C88.6499 16.29 91.3499 15.03 93.9599 15.03V18.72C91.0799 18.72 88.3799 19.71 86.9399 21.78ZM107.1 36C100.71 36 96.1199 31.41 96.1199 25.56C96.1199 19.71 100.62 14.94 107.1 14.94C109.62 14.94 112.14 15.84 114.03 17.01L112.5 19.89C110.88 18.9 108.9 18.18 106.83 18.18C102.87 18.18 99.8999 20.88 99.8999 25.56C99.8999 29.97 103.41 32.67 107.1 32.67C109.17 32.67 111.15 31.95 112.77 30.96L114.03 33.84C112.23 35.1 109.62 36 107.1 36ZM132.93 35.64V22.86C132.93 19.71 131.58 18.09 128.7 18.09C126.45 18.09 123.84 19.71 122.4 21.33V35.55H118.62V0.27H122.4V18.45C124.56 16.29 126.99 15.03 129.69 15.03C134.37 15.03 136.8 17.91 136.8 21.96V35.73H132.93V35.64ZM14.9399 5.22V14.67L28.5299 23.85V14.4L14.9399 5.22Z" fill="#1F304C"/>
<path opacity="0.75" d="M14.4 4.95001L0 14.4V23.85L14.4 14.4V4.95001Z" fill="#1F304C"/>
</g>
<defs>
<clipPath id="clip0">
<rect width="136.8" height="36" fill="white"/>
</clipPath>
</defs>
</svg>

<svg fill="none" height="36" viewBox="0 0 137 36" width="137" xmlns="http://www.w3.org/2000/svg" xmlns:xlink="http://www.w3.org/1999/xlink"><clipPath id="a"><path d="m0 0h136.8v36h-136.8z"/></clipPath><g clip-path="url(#a)" fill="#1f304c"><path d="m45.0899 23.31c-1.17 0-2.79-.09-4.05-.18v12.51h-3.87v-35.1c2.61-.36 5.22-.54 8.1-.54 9.09 0 13.59 5.22 13.59 11.25.09 7.11-5.13 12.06-13.77 12.06zm.81-19.8c-1.62 0-3.6.09-4.86.36v15.75c1.17.18 2.88.27 4.23.27 6.57 0 9.45-3.78 9.45-8.37.09-4.14-2.97-8.01-8.82-8.01zm22.41 32.49c-6.21 0-10.26-4.77-10.26-10.53s4.14-10.53 10.26-10.53c6.21 0 10.26 4.77 10.26 10.53-.09 5.76-4.14 10.53-10.26 10.53zm0-17.91c-3.87 0-6.48 2.97-6.48 7.47 0 4.41 2.61 7.47 6.48 7.47s6.48-2.97 6.48-7.47-2.61-7.47-6.48-7.47zm18.63 3.69v13.86h-3.7799v-20.25h3.5999v3.42c1.89-2.52 4.59-3.78 7.2-3.78v3.69c-2.88 0-5.58.99-7.02 3.06zm20.1601 14.22c-6.39 0-10.9801-4.59-10.9801-10.44s4.5001-10.62 10.9801-10.62c2.52 0 5.04.9 6.93 2.07l-1.53 2.88c-1.62-.99-3.6-1.71-5.67-1.71-3.96 0-6.9301 2.7-6.9301 7.38 0 4.41 3.5101 7.11 7.2001 7.11 2.07 0 4.05-.72 5.67-1.71l1.26 2.88c-1.8 1.26-4.41 2.16-6.93 2.16zm25.83-.36v-12.78c0-3.15-1.35-4.77-4.23-4.77-2.25 0-4.86 1.62-6.3 3.24v14.22h-3.78v-35.28h3.78v18.18c2.16-2.16 4.59-3.42 7.29-3.42 4.68 0 7.11 2.88 7.11 6.93v13.77h-3.87zm-117.9901-30.42v9.45l13.59 9.18v-9.45z"/><path d="m14.4 4.95001-14.4 9.44999v9.45l14.4-9.45z" opacity=".75"/></g></svg>
